X: 175
T: Jack's Magical Pipes (h'pipe)
N: 102003
C: BB
L: 1/8
M: C|
Q: 330
R: hornpipe
K: D
AG|"D"FGAd AFDF|"G"GBBd B4|"A"cdef "Em"gfed|"A"cABc "A7"AGFE|
"D"FGAd AFDF|"G"GBBd "Em"Bgfe|"D"fdAF "G"GBdg|"A"(3efg ec "D"d2 :|
fe|"Bm"dBfB dBfB|"F#m"FAcf efcA|"Bm"dBfB dBfa|"F#m7"efcA "G"B2 fe|
"Bm"dBfB dBfB|"F#m"FAcf efcA|"D" dafd "Em"Bgec|"D"(3def "A"ec "D"d2 :|
%%%%%%%%%%%%%%%%%%%%%%%%%%%%%%%%%%%%%%%%%%%
